X: 268
T:Sailor's Wife
% Nottingham Music Database
S:EF
Y:AB
M:6/8
K:Dm
P:A
F/2E/2|"Dm"DEF E2D|"Dm"d2e f2g|"F"agf "C/e"edc|"F"AcA "C/e"GEC|
"Dm"DEF "A7"E2D|"Dm"d2e "Dm/f"f2g|"Gm"agf "A7"ed^c|"Dm"d3 d2:|
P:B
d/2e/2|"F"fga fga|"F"fga agf|"C"ecg ecg|"C"ecg gfe|
"Dm"fga agf|"C"efg gfe|"Dm"def "A7"ed^c|"Dm"d3 d2:|


